X:133
T:Huggaremamma
R:sl\"angpolska
A:N\"arke
Z:hn-sp-133
M:3/4
L:1/16
K:Am
c2Ac B2^GB A2=g2 | ^fe^df e2e2 B3B | cBcd e2fe dcBc | A^GAB cABG E4 |
c2Ac B2^GB A2=g2 | ^fe^df e2e2 B3B | cBcd e2c2 B3A | ^GABc A8 :|
|: a2ba g2c'g e2c2 | e2fe dcBc A2^G2 | A3B cBcd e2g2 | ^fe^df e4 e3e |
a2ba g2c'g e2c2 | e2fe dcBc A2^G2 | A3B cBcd e2c2 | BA^GB A8 :|

